assets/icons/profile_liked.svg

<svg width="23" height="22" viewBox="0 0 23 22" fill="none" xmlns="http://www.w3.org/2000/svg">
<path d="M18.6807 14.3556C20.3041 12.4891 21.7342 10.224 21.7342 7.97022C21.7341 4.99809 19.5327 2.52124 16.4634 2.52124C15.0042 2.52124 13.5907 2.9912 11.88 4.55151C10.1694 2.9912 8.7559 2.52124 7.29671 2.52124C4.22731 2.52124 2.02592 4.99809 2.02588 7.97022C2.02588 10.224 3.45597 12.4891 5.07934 14.3556C6.72796 16.251 8.69839 17.8726 10.0118 18.8548L10.2248 19.0015C11.3128 19.685 12.7037 19.6358 13.7483 18.8548L14.2702 18.4573C15.5496 17.4629 17.2382 16.014 18.6807 14.3556Z" fill="white"/>
</svg>

<svg xmlns="http://www.w3.org/2000/svg" width="23" height="22" fill="none" viewBox="0 0 23 22"><path fill="#fff" d="M18.68 14.356c1.624-1.867 3.054-4.132 3.054-6.386 0-2.972-2.201-5.449-5.27-5.449-1.46 0-2.873.47-4.584 2.03-1.71-1.56-3.124-2.03-4.583-2.03-3.07 0-5.271 2.477-5.271 5.45 0 2.253 1.43 4.518 3.053 6.385 1.649 1.895 3.62 3.517 4.933 4.499l.213.146a3.1 3.1 0 0 0 3.523-.146l.522-.398c1.28-.994 2.968-2.443 4.41-4.101"/></svg>
